X:722
%%etbk:tnset id:383,pos:2,rep:3x,ant:
%%etbk:wsite https://thesession.org/tunes/2266
%%etbk:pldat 2016-01-02T14:25,2015-12-29T17:22,2015-12-29T17:17,2015-12-23T16:30,2015-12-13T15:43,2015-07-07T11:31,2015-06-03T19:30,2015-05-10T14:16,2015-05-05T15:10
T: Aaron's Key
Z: Piano Box Version by Martin Fleischmann
H: Created 2015-05-02 /  Last Modified 2015-12-23
R: jig
M: 6/8
L: 1/8
K: Bmin
E|!2!F2!5!B !2!Bcd|!3!cAA ABc|!4!dBB Bcd|!5!edc BAG|
!2!F!5!B!2!B Bcd|cAA ABc|!4!d2!3!d !4!ede|!5!f!3!d!2!B B2A|
!2!F2!5!B Bcd|cAA ABc|dBB B!3!c!1!d|!2!efd efg|
~f3 fed|cAA ABc|d2d ede|fdB B2c||
|:d2A !3!def|!4!ecA a2g|!3!~f3 fed|!2!cde ABc|
!2!BFB cBc|!4!d2!1!d !2!ede|!3!fed !3!cBA|1 !2!B2B B2c:|2 B2B B2A|


